X:1
T:Agnus Dei
T:Donna DiBella
T:Agnus Dei
T:©
T:©
C:Donna DiBella
Z:©
%%score { ( 1 2 ) | ( 3 4 ) }
L:1/8
Q:1/4=120
M:4/4
K:F
V:1 treble nm="MusicXML Part"
V:2 treble 
V:3 bass 
V:4 bass 
V:1
 DF AA AAAA | (3B2 A2 F2 D2 F2 | ED^CB,- B,A, !courtesy!^C2 | [F,A,D-]8 | D6 [G,E]2 | FA cc cc cc | %6
w: Lamb of God who takes a- way the|sin of the world, have|mer- * * * * cy on|us.|_ _|Lamb of God who takes a- way the|
 (3d2 c2 A2 F2 A2 | GF ED- DC E2 | F6- FG/F/ | E6 z2 | DF AA AAAA | (3B2 A2 F2 D4 | %12
w: sin of the world, have|mer- * * * * cy on|us. _ _ _|_|Lamb of God who takes a- way the|sin of the world,|
 ED^CB,- B,(A, C2) | D8- | D4 z4 |] %15
w: grant _ _ _ _ us _|peace.|_|
V:2
 [F,A,]4 [A,DF]4 | [DF]4 [F,A,]4 | [A,^C]8 | D,F,A,A, A,A,A,A, | (3B,2 A,2 F,2 D,2 G,2 | %5
 [A,C]4 [FA]4 | [FA]4 [A,C]4 | [G,CE]4 [E,G,]2 [G,C]2 | [A,C]8 | [A,^C]8 | [F,A,]4 [A,DF]4 | %11
 [DF]4 [F,A,]4 | [A,^C]8 | [F,A,]8- | [F,A,]4 z4 |] %15
V:3
 D,3 A,, D,2 A,,2 | D,3 A,, D,2 A,,2 | A,3 G,- G,F, E,2 | D,3 A,, D,2 A,,2 | D,3 A,, D,2 C,2 | %5
 F,3 C, F,2 C,2 | F,3 C, F,2 C,2 | C,3 G, C,2 G,2 | F,3 C, F,2 C,2 | z3 E, B,A,F,E, | %10
 D,3 A,, D,2 A,,2 | D,3 A,, D,2 A,,2 | A,3 E, A,2 A,,2 | D,B,A,F,- F,D, A,,2 | x8 |] %15
V:4
 D,,8 | D,,8 | A,,8 | D,,8 | D,,6 z2 | F,,8 | F,,8 | C,,8 | F,,8 | A,,8 | D,,8 | D,,8 | A,,8 | %13
 D,,8 | D,,4 z4 |] %15

